packages/ui-icons/svg/Line/collection-save.svg

<svg viewBox="0 0 1920 1920" version="1.1" xmlns="http://www.w3.org/2000/svg">
    <path d="M1510.85359,1779.58302 L409.146414,1779.58302 L81.2546391,1451.57632 L0,1532.94589 L361.565904,1894.51179 L1558.4341,1894.51179 L1920,1532.94589 L1838.86029,1451.57632 L1510.85359,1779.58302 Z M962.333054,1432.53262 L462.048126,932.247695 L543.187837,850.878128 L904.86867,1212.55896 L904.86867,25 L1019.68251,25 L1019.68251,1212.55896 L1381.47827,850.878128 L1462.61798,932.247695 L962.333054,1432.53262 Z" stroke="none" stroke-width="1" fill-rule="evenodd"/>
</svg>

<svg viewBox="0 0 1920 1920" xmlns="http://www.w3.org/2000/svg">
    <path d="M1510.854 1779.583H409.146L81.255 1451.576 0 1532.946l361.566 361.566h1196.868L1920 1532.946l-81.14-81.37-328.006 328.007Zm-548.52-347.05L462.047 932.248l81.14-81.37 361.68 361.681V25h114.815v1187.559l361.795-361.68 81.14 81.369-500.285 500.285Z" fill-rule="evenodd"/>
</svg>
